azure-patterns/svg-devops-git-client.svg

<svg xmlns="http://www.w3.org/2000/svg" viewBox="0 0 80 80">
                                
                            
    <rect width="80" height="80" fill="black" fill-opacity="0"></rect>
    <circle cx="40" cy="40" r="40" fill="#D83B01" fill-opacity="0.05"></circle>
    <path d="M58.5 40C58.5 40.459 58.4121 40.8984 58.2363 41.3184C58.0605 41.7285 57.8115 42.0947 57.4893 42.417L45.917 53.9893C45.5947 54.3115 45.2236 54.5605 44.8037 54.7363C44.3936 54.9121 43.9541 55 43.4854 55C42.9873 55 42.5039 54.8877 42.0352 54.6631L55.8633 40.7764C56.0781 40.5615 56.1855 40.2979 56.1855 39.9854C56.1855 39.6729 56.0781 39.4092 55.8633 39.1943L42.0645 25.3223C42.5137 25.1172 42.9971 25.0146 43.5146 25.0146C43.9639 25.0146 44.3984 25.0977 44.8184 25.2637C45.2383 25.4297 45.6045 25.6689 45.917 25.9814L57.4893 37.5537C57.8115 37.876 58.0605 38.252 58.2363 38.6816C58.4121 39.1016 58.5 39.541 58.5 40ZM51.0293 40C51.0293 40.4492 50.9414 40.8887 50.7656 41.3184C50.5898 41.7383 50.3457 42.1045 50.0332 42.417L38.4463 53.9893C38.124 54.3115 37.7529 54.5605 37.333 54.7363C36.9229 54.9121 36.4834 55 36.0146 55C35.5557 55 35.1162 54.9121 34.6963 54.7363C34.2764 54.5605 33.9053 54.3115 33.583 53.9893L22.0107 42.417C21.6885 42.0947 21.4395 41.7285 21.2637 41.3184C21.0879 40.8984 21 40.459 21 40C21 39.541 21.0879 39.1016 21.2637 38.6816C21.4395 38.252 21.6885 37.876 22.0107 37.5537L33.583 25.9814C33.8955 25.6689 34.2617 25.4297 34.6816 25.2637C35.1113 25.0879 35.5508 25 36 25C36.459 25 36.8984 25.083 37.3184 25.249C37.748 25.415 38.124 25.6592 38.4463 25.9814L50.0332 37.5537C50.3555 37.876 50.5996 38.252 50.7656 38.6816C50.9414 39.1016 51.0293 39.541 51.0293 40ZM36.0146 52.6855C36.3271 52.6855 36.5908 52.5781 36.8057 52.3633L48.3926 40.7764C48.6074 40.5615 48.7148 40.2979 48.7148 39.9854C48.7148 39.6729 48.6074 39.4092 48.3926 39.1943L36.8057 27.6074C36.5908 27.3926 36.3271 27.2852 36.0146 27.2852C35.7021 27.2852 35.4385 27.3926 35.2236 27.6074L32.5576 30.2734L35.1211 32.8369C35.4238 32.71 35.7217 32.6465 36.0146 32.6465C36.3369 32.6465 36.6348 32.71 36.9082 32.8369C37.1914 32.9541 37.4355 33.1201 37.6406 33.335C37.8555 33.54 38.0215 33.7842 38.1387 34.0674C38.2656 34.3408 38.3291 34.6387 38.3291 34.9609C38.3291 35.2539 38.2656 35.5566 38.1387 35.8691L40.834 38.5645C41.127 38.418 41.4443 38.3447 41.7861 38.3447C42.1084 38.3447 42.4062 38.4033 42.6797 38.5205C42.9629 38.6377 43.207 38.8037 43.4121 39.0186C43.627 39.2236 43.793 39.4678 43.9102 39.751C44.0371 40.0244 44.1006 40.3223 44.1006 40.6445C44.1006 40.9668 44.0371 41.2695 43.9102 41.5527C43.793 41.8262 43.627 42.0703 43.4121 42.2852C43.207 42.4902 42.9629 42.6562 42.6797 42.7832C42.4062 42.9004 42.1084 42.959 41.7861 42.959C41.4639 42.959 41.1611 42.9004 40.8779 42.7832C40.6045 42.6562 40.3652 42.4902 40.1602 42.2852C39.9551 42.0703 39.7891 41.8262 39.6621 41.5527C39.5449 41.2695 39.4863 40.9668 39.4863 40.6445C39.4863 40.3711 39.54 40.0977 39.6475 39.8242L36.9229 37.085L36.8789 37.0996V43.6182C37.3184 43.7939 37.6699 44.0771 37.9336 44.4678C38.1973 44.8584 38.3291 45.2881 38.3291 45.7568C38.3291 46.0791 38.2656 46.3818 38.1387 46.665C38.0215 46.9385 37.8555 47.1826 37.6406 47.3975C37.4355 47.6025 37.1914 47.7686 36.9082 47.8955C36.6348 48.0127 36.3369 48.0713 36.0146 48.0713C35.6924 48.0713 35.3896 48.0127 35.1064 47.8955C34.833 47.7686 34.5889 47.6025 34.374 47.3975C34.1689 47.1826 34.0029 46.9385 33.876 46.665C33.7588 46.3818 33.7002 46.0791 33.7002 45.7568C33.7002 45.2881 33.832 44.8584 34.0957 44.4678C34.3594 44.0771 34.7109 43.7939 35.1504 43.6182V37.0996C34.7109 36.9238 34.3594 36.6406 34.0957 36.25C33.832 35.8594 33.7002 35.4297 33.7002 34.9609C33.7002 34.668 33.7637 34.3701 33.8906 34.0674L31.3271 31.5039L23.6367 39.1943C23.5293 39.3018 23.4463 39.4238 23.3877 39.5605C23.3291 39.6973 23.2998 39.8389 23.2998 39.9854C23.2998 40.2881 23.4121 40.5518 23.6367 40.7764L35.2236 52.3633C35.4385 52.5781 35.7021 52.6855 36.0146 52.6855Z" fill="#D83B01"></path>
</svg>

<svg xmlns="http://www.w3.org/2000/svg" viewBox="0 0 80 80"><path fill="none" d="M0 0h80v80H0z"/><circle cx="40" cy="40" r="40" fill="#D83B01" fill-opacity=".05"/><path d="M58.5 40c0 .459-.088.898-.264 1.318-.175.41-.424.777-.747 1.099L45.917 53.989A3.438 3.438 0 0 1 43.485 55a3.32 3.32 0 0 1-1.45-.337l13.828-13.887c.215-.215.322-.478.322-.79 0-.313-.107-.577-.322-.792L42.065 25.322a3.45 3.45 0 0 1 1.45-.307c.449 0 .883.083 1.303.249.42.166.787.405 1.099.717l11.572 11.573c.323.322.572.698.747 1.128.176.42.264.859.264 1.318zm-7.47 0c0 .45-.089.889-.264 1.318-.176.42-.42.787-.733 1.099L38.446 53.989A3.438 3.438 0 0 1 36.015 55a3.438 3.438 0 0 1-2.432-1.01L22.011 42.416a3.484 3.484 0 0 1-.747-1.099A3.38 3.38 0 0 1 21 40c0-.459.088-.898.264-1.318.175-.43.425-.806.747-1.128L33.583 25.98a3.198 3.198 0 0 1 1.099-.717c.43-.176.869-.264 1.318-.264.459 0 .898.083 1.318.249.43.166.806.41 1.128.732l11.587 11.573c.322.322.567.698.733 1.128.175.42.263.859.263 1.318zM36.014 52.685c.312 0 .576-.107.79-.322l11.588-11.587c.214-.215.322-.478.322-.79 0-.313-.108-.577-.322-.792L36.806 27.607a1.076 1.076 0 0 0-.791-.322c-.313 0-.577.108-.791.322l-2.666 2.666 2.563 2.564a2.3 2.3 0 0 1 .894-.19c.322 0 .62.063.893.19.283.117.527.283.733.498.215.205.38.45.498.732.127.274.19.572.19.894 0 .293-.063.596-.19.908l2.695 2.696c.293-.147.61-.22.952-.22.322 0 .62.058.894.175.283.118.527.284.732.499.215.205.381.449.498.732.127.273.19.571.19.894 0 .322-.063.624-.19.908a2.32 2.32 0 0 1-.498.732c-.205.205-.45.371-.732.498a2.245 2.245 0 0 1-.894.176c-.322 0-.625-.059-.908-.176a2.487 2.487 0 0 1-.718-.498 2.7 2.7 0 0 1-.498-.732 2.351 2.351 0 0 1-.176-.908c0-.274.054-.547.162-.82l-2.725-2.74-.044.015v6.518c.44.176.79.46 1.055.85.263.39.395.82.395 1.289 0 .322-.063.625-.19.908a2.32 2.32 0 0 1-.498.733 2.43 2.43 0 0 1-.733.497 2.244 2.244 0 0 1-.893.176c-.323 0-.625-.058-.909-.175a2.7 2.7 0 0 1-.732-.498 2.697 2.697 0 0 1-.498-.733 2.351 2.351 0 0 1-.176-.908c0-.469.132-.899.396-1.29.263-.39.615-.673 1.054-.849V37.1a2.255 2.255 0 0 1-1.054-.85 2.255 2.255 0 0 1-.205-2.183l-2.564-2.563-7.69 7.69c-.108.108-.19.23-.25.366a1.083 1.083 0 0 0 .249 1.216l11.588 11.587c.215.215.478.322.79.322z" fill="#D83B01"/></svg>
